X: 3
T: The Lilac
R: reel
M: 4/4
L: 1/8
K: Bmin
|:f3e dB3|(3cde fe dB3|f3e dB3|cBAB cdea|
f3e dB3|(3cde fe dB3|b3a f3e|dBAc B2 (3cde:|
|:fbba f3e|(3cde fe dB3|f3e d3e|fbbc' bafe|
fbba f3e|(3cde fe dB3|f3 e dB B2|cBAc B2 (3cde:||


Tune 758	Setting 27941

